X:32
T: IST DENN LIEBEN EIN VERBRECHEN
N: E0645A
O: Europa, Mitteleuropa, Deutschland
R: Liebes - Lied
M: 4/4
L: 1/16
K: G
D2D2 | G6G2G4F2G2 | B3AA4z4
A2G2 | G2F2E2D2d6c2 | B8z4
D2G2 | B6B2B4A2G2 | F3EE4z4
G2E2 | D6D2D4E2F2 | G8z4
F2G2 | A6A2A4G2A2 | B4G4z4
F2G2 | A6A2d6c2 | B8z4
D2G2 | B6B2B4A2G2 | F3EE4z4
AGFE | D6D2D4E2F2 | G8z4

@@@ Tune index: 4345
